!!!!SEGMENT: pl-wn--sd-xvi-o-230_anonim--kancjonal-zamoyskich-modlitwa-panska-z-krotkiem-wylozeniem-kazdej-prosby-ojcze-nasz-ktorys-jest-w-niebie.krn
!!!cenid: 15xx:1110
!!!COM: Anonim
!!!COM-rismID: pe30004985
!!!CDT:
!!!CNT:
!!!GTL: Kancjonał Zamoyskich
!!!OTL: Modlitwa Pańska z krótkiem wyłozeniem kazdej prośby/Ojcze nasz któryś jest w niebie
!!!PDT: 1558
!!!AGN:
!!!SMS-siglum: PL-Wn
!!!SMS-shelfmark: SD XVI.O.230
!!!SMS-shelfwork: G
!!!SMS-variant:
!!!SMS-altvar:
!!!NIFC-rismSourceID: 990071850
!!!NIFC-rismChildID: 990071850
!!!NIFC-islandoraID: none
!!!URL-pdf-islandora:
!!!URL-scan: https://polona2.pl/item/modlithwa-panska-z-krothkiem-wylozenim-kazdey-prosby,MTE3MDA2Nw/3/#info:metadata @EN{Scan on Polona} @PL{Skany w portalu Polona}
!!!IIIF:
!!!ONB-nifc:
!!!AIN: 1 alto 1 bass 1 soprn 1 tenor
!!!key: d:dor
**kern	**text	**kern	**text	**kern	**text	**kern
*part4	*part4	*part3	*part3	*part2	*part2	*part1
*staff4	*staff4	*staff3	*staff3	*staff2	*staff2	*staff1
*I"BASVS	*	*I"TENOR	*	*I"ALT	*	*I"CANTVS:
*I'B	*	*I'T	*	*I'A	*	*I'S
*ICvox	*	*ICvox	*	*ICvox	*	*ICvox
*Ibass	*	*Itenor	*	*Ialto	*	*Isoprn
*clefF4	*	*clefC4	*	*clefC3	*	*clefC1
*k[]	*	*k[]	*	*k[]	*	*k[]
*d:dor	*	*d:dor	*	*d:dor	*	*d:dor
*M2/1	*	*M2/1	*	*M2/1	*	*M2/1
*met(C|)	*	*met(C|)	*	*met(C|)	*	*met(C|)
=1-	=1-	=1-	=1-	=1-	=1-	=1-
1.D	Oy-	0A	Oy-	2.d\	Oy-	2.a\
.	.	.	.	4e\	.	4g/
.	.	.	.	2f\	.	2g\
2C/	.	.	.	2c/	-cze	2e/
=2-	=2-	=2-	=2-	=2-	=2-	=2-
2D/	-cze	1A	-cze	2d\	naſz	2d/
2AA/	.	.	.	2e\	.	2c/
1D	naſz	1F	naſz	2.d\	kto-	1f
.	.	.	.	4c/	-rys	.
=3-	=3-	=3-	=3-	=3-	=3-	=3-
1E	kto-	1G	kto-	2B/	ieſt	2e/
.	.	.	.	2c/	w nie-	2g\
2D/	-rys	1A	-rys	4A/	.	2f/
.	.	.	.	4B/	.	.
2C/	.	.	.	2.c/	-bie	2.e/
=4-	=4-	=4-	=4-	=4-	=4-	=4-
1D	ieſt	1F	ieſt	.	.	.
.	.	.	.	4B/	.	4d/
.	.	.	.	4A/	wzią	1d
.	.	.	.	4G/	.	.
*	*	*	*	*custos:A	*	*
!	!	!	!	!LO:LB:g=original	!	!
1AA	w nie-	1E	w nie-	1A	.	.
.	.	.	.	.	.	2c/
=5-	=5-	=5-	=5-	=5-	=5-	=5-
2.A\	.	0D	.	2.F/	.	2d/
*	*	*	*	*	*	*custos:a
!	!	!	!	!	!	!LO:LB:g=original
.	.	.	.	.	.	2.a\
4G\	.	.	.	4G/	.	.
2F\	-bie	.	.	1A	.	.
.	.	.	.	.	.	4g/
2D/	wzią-	.	.	.	.	4f/
.	.	.	.	.	.	4e/
*custos:F	*	*	*	*	*	*
!LO:LB:g=original	!	!	!	!	!	!
=6-	=6-	=6-	=6-	=6-	=6-	=6-
2.F\	.	0A	.	2A/	.	2.d/
.	.	.	.	1d	.	.
4E\	.	.	.	.	.	4e/
1D	.	.	.	.	.	1f
.	.	.	.	2d\	.	.
=7-	=7-	=7-	=7-	=7-	=7-	=7-
4AA/	.	1A	-bie	1c	.	2.e/
4BB/	.	.	.	.	.	.
4C/	.	.	.	.	.	.
4D/	.	.	.	.	.	4f/
1E	.	1G	wzią-	2B/	.	4g\
.	.	.	.	.	.	4a\
.	.	.	.	2G/	.	2b\
*	*	*custos:c	*	*	*	*
!	!	!LO:LB:g=original	!	!	!	!
=8-	=8-	=8-	=8-	=8-	=8-	=8-
1AA	.	1c	-łeś	2A/	.	1a
.	.	.	.	2e\	.	.
2D/	.	1A	nas	2d\	.	2a\
2AA/	.	.	.	4c/	.	1cc\
.	.	.	.	4d\	.	.
=9-	=9-	=9-	=9-	=9-	=9-	=9-
1A	.	1F	za	2e\	.	.
.	.	.	.	1f	.	4b\
.	.	.	.	.	.	4a\
*	*	*	*	*	*	*custos:b
!	!	!	!	!	!	!LO:LB:g=original
2G\	.	1G	ſy-	.	.	1b
2E\	.	.	.	2e\	.	.
=10-	=10-	=10-	=10-	=10-	=10-	=10-
2D/	.	0A	-ny	2f\	.	2r
*	*	*	*	*custos:c	*	*
!	!	!	!	!LO:LB:g=original	!	!
2.F\	.	.	.	2.c/	.	2.a\
4E\	.	.	.	4d\	.	4b\
*custos:D	*	*	*	*	*	*
!LO:LB:g=original	!	!	!	!	!	!
4D/	.	.	.	2e\	.	2cc\
4C/	.	.	.	.	.	.
=11-	=11-	=11-	=11-	=11-	=11-	=11-
2D/	.	0A	ſo-	2f\	.	2a\
2AA/	.	.	.	2e\	.	2cc\
2D/	.	.	.	2f\	.	4dd\
.	.	.	.	.	.	4cc\
2F\	.	.	.	2d\	.	4b\
.	.	.	.	.	.	4a\
=12-	=12-	=12-	=12-	=12-	=12-	=12-
1E	.	1c	-bie	1e	.	1g
2D/	.	1d	chąc	2r	.	2f/
2G\	.	.	.	2B/	.	2g/
=13-	=13-	=13-	=13-	=13-	=13-	=13-
2.F\	.	1f	.	1.c	.	2.a\
4G\	.	.	.	.	.	4b\
1A	.	1e	byſ-	.	.	1cc
.	.	.	.	2c/	.	.
=14-	=14-	=14-	=14-	=14-	=14-	=14-
1D	.	1d	-my	1f	.	2a\
.	.	.	.	.	.	2f/
*	*	*	*	*	*	*custos:g
!	!	!	!	!	!	!LO:LB:g=original
1E	.	1c	thu	1e	.	1g
*	*	*custos:d	*	*	*	*
!	!	!LO:LB:g=original	!	!	!	!
=15-	=15-	=15-	=15-	=15-	=15-	=15-
1.D	.	0d	bra-	1.A	.	2.f/
.	.	.	.	.	.	4g/
.	.	.	.	.	.	2a\
1G\	.	.	.	1B/	.	2g/
=16-	=16-	=16-	=16-	=16-	=16-	=16-
.	.	0d	-cia	.	.	2d/
2F\	.	.	.	2A/	.	2a\
*custos:G	*	*	*	*	*	*
!LO:LB:g=original	!	!	!	!	!	!
2G\	.	.	.	4B/	.	2g/
*	*	*	*	*custos:c	*	*
!	!	!	!	!LO:LB:g=original	!	!
.	.	.	.	4c/	.	.
2B\	.	.	.	1d\	.	4f/
.	.	.	.	.	.	4g/
=17-	=17-	=17-	=17-	=17-	=17-	=17-
1A	.	1e	by-	.	.	1.a
.	.	.	.	2c/	.	.
2D/	.	1d	-li	2f\	.	.
2A\	.	.	.	1g\	.	2b\
=18-	=18-	=18-	=18-	=18-	=18-	=18-
2C/	.	1c	To-	.	.	2cc\
2F\	.	.	.	4f\	.	2a\
.	.	.	.	4e\	.	.
2G\	.	1B	-bie	2d\	.	2b\
2E\	.	.	.	2e\	.	2g/
=19-	=19-	=19-	=19-	=19-	=19-	=19-
2F\	.	1A	ſie	2c/	.	2a\
2D/	.	.	.	2d\	.	2f/
*	*	*	*	*	*	*custos:g
!	!	!	!	!	!	!LO:LB:g=original
1E	.	1G	za-	1B	.	1g
=20-	=20-	=20-	=20-	=20-	=20-	=20-
2AA/	.	0A	-wſze	2c/	.	2e/
2.D/	.	.	.	4d/	.	2f/
.	.	.	.	4e\	.	.
.	.	.	.	2f\	.	2d/
4C/	.	.	.	.	.	.
2D/	.	.	.	2F/	.	2.dd\
=21-	=21-	=21-	=21-	=21-	=21-	=21-
2BB/	.	0d	mo-	1G	.	.
.	.	.	.	.	.	4cc\
2GG/	.	.	.	.	.	2b\
*custos:D	*	*	*	*custos:G	*	*
!LO:LB:g=original	!	!	!	!LO:LB:g=original	!	!
1D	.	.	.	2.G/	.	2.a\
.	.	.	.	4A/	.	4b\
=22-	=22-	=22-	=22-	=22-	=22-	=22-
4AA/	.	1c	-dli-	2B/	.	2cc\
4BB/	.	.	.	.	.	.
4C/	.	.	.	1e	.	2.g/
4D/	.	.	.	.	.	.
2E\	.	1B	-li	.	.	.
.	.	.	.	.	.	4a\
2G\	.	.	.	2d\	.	2b\
*	*	*custos:c	*	*	*	*
!	!	!LO:LB:g=original	!	!	!	!
=23-	=23-	=23-	=23-	=23-	=23-	=23-
2F\	.	1c	ſer-	2f\	.	2a\
2E/	.	.	.	2e\	.	2g/
1D	.	1A	-cem	1d	.	1f
=24-	=24-	=24-	=24-	=24-	=24-	=24-
2.AA/	.	1A	y	1.c	.	2e/
.	.	.	.	.	.	1f
4BB/	.	.	.	.	.	.
1C	.	1G	u-	.	.	.
*	*	*	*	*	*	*custos:e
!	!	!	!	!	!	!LO:LB:g=original
.	.	.	.	2c/	.	2e/
=25-	=25-	=25-	=25-	=25-	=25-	=25-
1D	.	0F	-ſty	2A/	.	2f/
.	.	.	.	2d\	.	4d/
.	.	.	.	.	.	4e/
2.A\	.	.	.	1c	.	4f/
.	.	.	.	.	.	4g/
.	.	.	.	.	.	2.a\
4G\	.	.	.	.	.	.
*custos:F	*	*	*	*	*	*
!LO:LB:g=original	!	!	!	!	!	!
=26-	=26-	=26-	=26-	=26-	=26-	=26-
2.F\	.	0A	wzy-	2c/	.	.
.	.	.	.	.	.	4g/
.	.	.	.	4d\	.	2.f/
4E/	.	.	.	4e\	.	.
1D	.	.	.	1f	.	.
.	.	.	.	.	.	4e/
.	.	.	.	.	.	2d/
=27-	=27-	=27-	=27-	=27-	=27-	=27-
1GG	.	1B-X	-(wa)li	1d	.	1g
*	*	*	*	*custos:c	*	*
!	!	!	!	!LO:LB:g=original	!	!
1AA	.	1A	w to-	1c	.	2f/
.	.	.	.	.	.	2e/
=28-	=28-	=28-	=28-	=28-	=28-	=28-
1D	.	1F	-bie	2A/	.	2d/
.	.	.	.	2d\	.	2.f/
2E\	.	1G	Za-	2B/	.	.
.	.	.	.	.	.	4e/
*	*	*	*	*	*	*custos:e
!	!	!	!	!	!	!LO:LB:g=original
2C/	.	.	.	2c/	.	2.e/
=29-	=29-	=29-	=29-	=29-	=29-	=29-
1D	.	1F	-du-	1A	.	.
.	.	.	.	.	.	4d/
.	.	.	.	.	.	1d
1AA	.	1E	-fa-	1A	.	.
.	.	.	.	.	.	2c/
=30-	=30-	=30-	=30-	=30-	=30-	=30-
0BB-X	.	000D/	-li-	0F	.	0d
=31-	=31-	=31-	=31-	=31-	=31-	=31-
0GG	.	.	.	0B-X	.	0g
=32-	=32-	=32-	=32-	=32-	=32-	=32-
*^	*	*	*	*	*	*
!	!	!	!	!	!	!	!LO:TX:t=P:problem:# below
00DD/	00D/	.	.	.	00A	.	00f#X
*v	*v	*	*	*	*	*	*
==	==	==	==	==	==	==
*-	*-	*-	*-	*-	*-	*-
!!!system-decoration: [(s1,s2,s3,s4)]
!!!ENC: Anastazja Marusiak
!!!END: 2022-10-26
!!!ENC: Natalia Wrzos
!!!END: 2022-11-22
!!!YEC: Copyright 2022 Narodowy Instytut Fryderyka Chopina (https://polishscores.org)
!!!YEM: License CC-BY-4.0 (https://creativecommons.org/licenses/by/4.0)
